papirus/22x22/apps/preferences-desktop-display.svg

<svg height="22" viewBox="0 0 44.000001 44.000001" width="22" xmlns="http://www.w3.org/2000/svg" xmlns:xlink="http://www.w3.org/1999/xlink"><linearGradient id="a" gradientUnits="userSpaceOnUse" x1="24.198" x2="23.878" y1="21.8" y2="6"><stop offset="0"/><stop offset="1" stop-opacity="0"/></linearGradient><g transform="translate(-2 -2.0000114)"><rect fill="#7e7e7e" height="24" rx="2" transform="matrix(0 -1 -1 0 0 0)" width="32" x="-42.000023" y="-36"/><rect fill="#757575" height="40" rx="2" transform="matrix(0 -1 -1 0 0 0)" width="32" x="-38.000023" y="-44"/><path d="m-36-42h28v36h-28z" fill="#464646" transform="matrix(0 -1 -1 0 0 0)"/><path d="m4 8c0-1.108.892-2 2-2h36c1.108 0 2 .892 2 2v14h-40z" fill="url(#a)" opacity=".1"/><path d="m6 6c-1.108 0-2 .892-2 2v1c0-1.108.892-2 2-2h36c1.108 0 2 .892 2 2v-1c0-1.108-.892-2-2-2z" fill="#fff" opacity=".2"/><path d="m12 39v1c0 1.108.892 2 2 2h20c1.108 0 2-.892 2-2v-1c0 1.108-.892 2-2 2h-20c-1.108 0-2-.892-2-2z" opacity=".3"/><path d="m4 35v1c0 1.108.892 2 2 2h36c1.108 0 2-.892 2-2v-1c0 1.108-.892 2-2 2h-36c-1.108 0-2-.892-2-2z" opacity=".3"/></g></svg>

<?xml version="1.0" encoding="UTF-8" standalone="no"?>
<!-- Created with Inkscape (http://www.inkscape.org/) -->

<svg
   xmlns:dc="http://purl.org/dc/elements/1.1/"
   xmlns:cc="http://creativecommons.org/ns#"
   xmlns:rdf="http://www.w3.org/1999/02/22-rdf-syntax-ns#"
   xmlns:svg="http://www.w3.org/2000/svg"
   xmlns="http://www.w3.org/2000/svg"
   xmlns:sodipodi="http://sodipodi.sourceforge.net/DTD/sodipodi-0.dtd"
   xmlns:inkscape="http://www.inkscape.org/namespaces/inkscape"
   id="svg4468"
   height="22"
   width="22"
   version="1.1"
   viewBox="0 0 44.000001 44.000001"
   inkscape:version="0.91 r13725"
   sodipodi:docname="preferences-desktop-display.svg">
  <sodipodi:namedview
     pagecolor="#ffffff"
     bordercolor="#666666"
     borderopacity="1"
     objecttolerance="10"
     gridtolerance="10"
     guidetolerance="10"
     inkscape:pageopacity="0"
     inkscape:pageshadow="2"
     inkscape:window-width="1600"
     inkscape:window-height="849"
     id="namedview17"
     showgrid="false"
     inkscape:zoom="6.1198265"
     inkscape:cx="-27.083828"
     inkscape:cy="3.8644068"
     inkscape:window-x="0"
     inkscape:window-y="0"
     inkscape:window-maximized="1"
     inkscape:current-layer="svg4468" />
  <defs
     id="defs4470">
    <linearGradient
       id="linearGradient5346"
       y2="1010.4"
       gradientUnits="userSpaceOnUse"
       x2="23.878"
       y1="1026.2"
       x1="24.198"
       gradientTransform="translate(0,-1004.4)">
      <stop
         id="stop5342"
         offset="0" />
      <stop
         id="stop5344"
         stop-opacity="0"
         offset="1" />
    </linearGradient>
  </defs>
  <metadata
     id="metadata4473">
    <rdf:RDF>
      <cc:Work
         rdf:about="">
        <dc:format>image/svg+xml</dc:format>
        <dc:type
           rdf:resource="http://purl.org/dc/dcmitype/StillImage" />
        <dc:title></dc:title>
      </cc:Work>
    </rdf:RDF>
  </metadata>
  <g
     id="g4143"
     transform="translate(-2,-2.0000114)">
    <rect
       id="rect4777"
       ry="2"
       rx="2"
       transform="matrix(0,-1,-1,0,0,0)"
       height="24"
       width="32"
       y="-36"
       x="-42.000023"
       style="fill:#7e7e7e" />
    <rect
       id="rect4203-7"
       transform="matrix(0,-1,-1,0,0,0)"
       rx="2"
       ry="2"
       height="40"
       width="32"
       y="-44"
       x="-38.000023"
       style="fill:#757575" />
    <rect
       id="rect3282"
       ry="0"
       rx="0"
       transform="matrix(0,-1,-1,0,0,0)"
       height="36"
       width="28"
       y="-42"
       x="-36"
       style="fill:#464646" />
    <path
       id="path4294"
       d="M 4,8 C 4,6.892 4.892,6 6,6 l 36,0 c 1.108,0 2,0.892 2,2 l 0,14 -40,0 z"
       style="opacity:0.1;fill:url(#linearGradient5346)"
       inkscape:connector-curvature="0" />
    <path
       id="rect4414"
       d="M 6,6 C 4.892,6 4,6.892 4,8 L 4,9 C 4,7.892 4.892,7 6,7 l 36,0 c 1.108,0 2,0.892 2,2 L 44,8 C 44,6.892 43.108,6 42,6 L 6,6 Z"
       inkscape:connector-curvature="0"
       style="opacity:0.2;fill:#ffffff" />
    <path
       id="rect4779"
       d="m 12,39 0,1 c 0,1.108 0.892,2 2,2 l 20,0 c 1.108,0 2,-0.892 2,-2 l 0,-1 c 0,1.108 -0.892,2 -2,2 l -20,0 c -1.108,0 -2,-0.892 -2,-2 z"
       inkscape:connector-curvature="0"
       style="opacity:0.3" />
    <path
       id="rect4077"
       d="m 4,35 0,1 c 0,1.108 0.892,2 2,2 l 36,0 c 1.108,0 2,-0.892 2,-2 l 0,-1 c 0,1.108 -0.892,2 -2,2 L 6,37 C 4.892,37 4,36.108 4,35 Z"
       inkscape:connector-curvature="0"
       style="opacity:0.3" />
  </g>
</svg>
